packages/tokens/icons/recommendedProducts/size16Px.svg

<svg viewBox="0 0 16 16" fill="none" xmlns="http://www.w3.org/2000/svg" width="1em" height="1em"><path d="M12.5 12.5L12.5 4" stroke="currentColor" stroke-linecap="round"/><path d="M10.5 5.5L12.5 3.5L14.5 5.5" stroke="currentColor" stroke-linecap="round" stroke-linejoin="round"/><path d="M3.06131 9.40402L1.69307 8.08297C1.40164 7.80158 1.54829 7.30857 1.94614 7.23223L3.98006 6.84191C4.13954 6.8113 4.27423 6.70515 4.34125 6.55723L5.04457 5.00508C5.22198 4.61357 5.77802 4.61357 5.95543 5.00508L6.65875 6.55723C6.72577 6.70515 6.86046 6.8113 7.01994 6.84191L9.05386 7.23223C9.45171 7.30857 9.59836 7.80158 9.30693 8.08297L7.93869 9.40402C7.82053 9.51811 7.76594 9.68295 7.79264 9.84501L8.14493 11.983C8.21282 12.395 7.77565 12.7038 7.41004 12.5021L5.74154 11.5815C5.5912 11.4986 5.40881 11.4986 5.25846 11.5815L3.58996 12.5021C3.22435 12.7038 2.78718 12.395 2.85507 11.983L3.20736 9.84501C3.23406 9.68295 3.17947 9.51811 3.06131 9.40402Z" stroke="currentColor"/></svg>

<svg xmlns="http://www.w3.org/2000/svg" fill="none" viewBox="0 0 16 16" width="1em" height="1em"><path stroke="currentColor" stroke-linecap="round" d="M12.5 12.5V4"/><path stroke="currentColor" stroke-linecap="round" stroke-linejoin="round" d="m10.5 5.5 2-2 2 2"/><path stroke="currentColor" d="M3.061 9.404 1.693 8.083a.5.5 0 0 1 .253-.85l2.034-.391a.5.5 0 0 0 .361-.285l.704-1.552a.5.5 0 0 1 .91 0l.704 1.552a.5.5 0 0 0 .36.285l2.035.39a.5.5 0 0 1 .253.851L7.939 9.404a.5.5 0 0 0-.146.441l.352 2.138a.5.5 0 0 1-.735.52l-1.668-.921a.5.5 0 0 0-.484 0l-1.668.92a.5.5 0 0 1-.735-.519l.352-2.138a.5.5 0 0 0-.146-.441Z"/></svg>
